assets/icons/kids/notes.svg

<svg width="24" height="24" viewBox="0 0 24 24" fill="none" xmlns="http://www.w3.org/2000/svg">
<rect x="7.9917" y="3.25781" width="12.0802" height="14.8554" rx="0.727198" transform="rotate(22.4498 7.9917 3.25781)" fill="#0077CC"/>
<path d="M7.33654 7.11591L7.00977 18.9314L9.36893 19.8818V6.08157C7.64345 6.06038 7.33332 6.25792 7.33654 7.11591Z" fill="#005999"/>
<rect x="8.05298" y="6.08984" width="13.6282" height="15.2882" rx="0.727198" fill="#FFD740"/>
<rect x="9.1167" y="9.57227" width="11.5111" height="1.40664" rx="0.70332" fill="#FFA000"/>
<rect x="9.11328" y="12.5898" width="9.42673" height="1.40664" rx="0.70332" fill="#FFA000"/>
<rect x="9.11328" y="15.3965" width="5.81902" height="1.40664" rx="0.70332" fill="#FFA000"/>
<path d="M14.8621 7.42166C14.82 7.41947 14.7814 7.40199 14.7531 7.37244C14.7247 7.34281 14.7089 7.30332 14.7085 7.26112C14.7083 7.21899 14.7228 7.17749 14.7507 7.14744C14.8059 7.08831 14.8619 7.02962 14.9171 6.97049C15.912 5.90498 16.907 4.83912 17.9019 3.77362C17.9572 3.71442 18.013 3.65469 18.0683 3.59549C18.1473 3.51094 18.255 3.4628 18.3706 3.46541C18.4862 3.46789 18.6002 3.52121 18.6847 3.60955C18.7692 3.69789 18.8162 3.81396 18.8136 3.92948C18.8111 4.04517 18.7588 4.15075 18.6706 4.22596C18.6092 4.27852 18.5481 4.3316 18.4867 4.38416C17.3786 5.33153 16.2702 6.27859 15.1621 7.22596C15.1005 7.27859 15.0385 7.33153 14.9769 7.38416C14.9457 7.41061 14.904 7.42373 14.8621 7.42166Z" fill="#0077CC"/>
<circle cx="18.1318" cy="3.91131" r="1.51092" fill="#FF736C"/>
</svg>

<svg xmlns="http://www.w3.org/2000/svg" width="24" height="24" fill="none" viewBox="0 0 24 24"><rect width="12.08" height="14.855" x="7.992" y="3.258" fill="#07c" rx=".727" transform="rotate(22.45 7.992 3.258)"/><path fill="#005999" d="M7.337 7.116 7.01 18.93l2.359.95V6.08c-1.726-.02-2.036.177-2.032 1.035"/><rect width="13.628" height="15.288" x="8.053" y="6.09" fill="#ffd740" rx=".727"/><rect width="11.511" height="1.407" x="9.117" y="9.572" fill="#ffa000" rx=".703"/><rect width="9.427" height="1.407" x="9.113" y="12.59" fill="#ffa000" rx=".703"/><rect width="5.819" height="1.407" x="9.113" y="15.396" fill="#ffa000" rx=".703"/><path fill="#07c" d="M14.862 7.422a.16.16 0 0 1-.153-.16c0-.043.014-.085.042-.115l.166-.177 2.985-3.196.166-.179a.4.4 0 0 1 .303-.13c.115.003.23.056.314.145a.45.45 0 0 1 .129.32.4.4 0 0 1-.143.296l-.184.158-3.325 2.842-.185.158a.17.17 0 0 1-.115.038"/><circle cx="18.132" cy="3.911" r="1.511" fill="#ff736c"/></svg>
